packages/foundations/assets/icons/functional/images/layout/resize_32.svg

<svg width="32" height="32" viewBox="0 0 32 32" fill="none" xmlns="http://www.w3.org/2000/svg">
<g clip-path="url(#clip0_185_1501)">
<path fill-rule="evenodd" clip-rule="evenodd" d="M9.50025 20C10.8257 20 12.0002 21.0557 12.0002 22.5V27.5C12.0002 28.8255 10.9515 30 9.50025 30H4.50025C3.17476 30 1.9719 28.9082 2.00025 27.5V22.5C2.00025 21.1745 3.04824 20 4.50025 20H9.50025ZM4.50025 22C4.25479 22 4.00025 22.2036 4.00025 22.5V27.5C4.00025 27.7455 4.19743 28 4.50025 28H9.50025C9.74571 28 10.0002 27.8102 10.0002 27.5V22.5C10.0002 22.263 9.81161 22 9.50025 22H4.50025ZM27.0002 2C28.5979 2 30.0002 3.28106 30.0002 5V23C30.0002 24.5977 28.7217 26 27.0002 26H16.0002C15.448 26 15.0002 25.5523 15.0002 25C15.0002 24.4872 15.4178 24 16.0002 24H27.0002C27.5131 24 28.0002 23.565 28.0002 23V5C28.0002 4.48716 27.602 4 27.0002 4H9.00025C8.48741 4 8.00025 4.42363 8.00025 5V16C8.00025 16.5523 7.55253 17 7.00025 17C6.48741 17 6.00025 16.5745 6.00025 16V5C6.00025 3.40232 7.29347 2 9.00025 2H27.0002ZM23.0002 8C23.5131 8 24.0002 8.41881 24.0002 9V15C24.0002 15.5523 23.5525 16 23.0002 16C22.4874 16 22.0002 15.5838 22.0002 15V11.414L15.7074 17.7071C15.3168 18.0976 14.6837 18.0976 14.2931 17.7071C13.9327 17.3466 13.8704 16.6983 14.2931 16.2929L20.5842 10H17.0002C16.4098 10 16.0002 9.51284 16.0002 9C16.0002 8.48716 16.4098 8 17.0002 8H23.0002Z" fill="#1A1C1F"/>
</g>
<defs>
<clipPath id="clip0_185_1501">
<rect width="32" height="32" fill="white"/>
</clipPath>
</defs>
</svg>

<svg xmlns="http://www.w3.org/2000/svg" width="32" height="32" fill="none"><g clip-path="url(#a)"><path fill="#1A1C1F" fill-rule="evenodd" d="M9.5 20c1.326 0 2.5 1.056 2.5 2.5v5A2.49 2.49 0 0 1 9.5 30h-5c-1.325 0-2.528-1.092-2.5-2.5v-5A2.49 2.49 0 0 1 4.5 20zm-5 2c-.245 0-.5.204-.5.5v5c0 .245.197.5.5.5h5c.246 0 .5-.19.5-.5v-5c0-.237-.188-.5-.5-.5zM27 2c1.598 0 3 1.281 3 3v18c0 1.598-1.278 3-3 3H16a1 1 0 0 1 0-2h11c.513 0 1-.435 1-1V5c0-.513-.398-1-1-1H9c-.513 0-1 .424-1 1v11a1 1 0 0 1-1 1c-.513 0-1-.425-1-1V5c0-1.598 1.293-3 3-3zm-4 6c.513 0 1 .419 1 1v6a1 1 0 1 1-2 0v-3.586l-6.293 6.293a1 1 0 0 1-1.414 0c-.36-.36-.423-1.009 0-1.414L20.584 10H17a1 1 0 0 1 0-2z" clip-rule="evenodd"/></g><defs><clipPath id="a"><path fill="#fff" d="M0 0h32v32H0z"/></clipPath></defs></svg>
